X: 3342
T: ALBION HORNPIPE
C: Carl Volti
R: Hornpipe.
%R: hornpipe, reel
B: James Kerr "Merry Melodies" v.3 p.37 #342
Z: 2016 John Chambers <jc:trillian.mit.edu>
M: C
L: 1/8
K: G
(3(DEF) |\
G2B2 d4 | ed^ce dBG2 |\
bgdB gdBG | A^GAB A2(3(DEF) |\
G2B2 d4 | ed^ce dBG2 |\
[1 FAdf egec | d2f2d2 :|\
[2 bgdB gdBG | AGAB G2 |]
|: D2 |\
G,B,DG Bdgb | ((3(aba)g2) g4 |\
d'bgd Bdgb | a^gab a2D2 |\
G,B,DG Bdgb | ((3(aba)g2) g4 |\
d'bgd Bdgb | agab g2 :|

%%sep 1 1 500
%%sep 1 1 500

